image/china-on2.svg

<svg width="34" height="34" viewBox="0 0 34 34" fill="none" xmlns="http://www.w3.org/2000/svg">
<path d="M12.3337 31.7499C13.1161 31.7499 13.7503 31.1156 13.7503 30.3332C13.7503 29.5508 13.1161 28.9165 12.3337 28.9165C11.5513 28.9165 10.917 29.5508 10.917 30.3332C10.917 31.1156 11.5513 31.7499 12.3337 31.7499Z" stroke="#E03D3B" stroke-width="2" stroke-linecap="round" stroke-linejoin="round"/>
<path d="M27.9167 31.7499C28.6991 31.7499 29.3333 31.1156 29.3333 30.3332C29.3333 29.5508 28.6991 28.9165 27.9167 28.9165C27.1343 28.9165 26.5 29.5508 26.5 30.3332C26.5 31.1156 27.1343 31.7499 27.9167 31.7499Z" stroke="#E03D3B" stroke-width="2" stroke-linecap="round" stroke-linejoin="round"/>
<path d="M1 2H6.66667L10.4633 20.9692C10.5929 21.6214 10.9477 22.2073 11.4657 22.6243C11.9837 23.0412 12.6318 23.2627 13.2967 23.25H27.0667C27.7315 23.2627 28.3797 23.0412 28.8976 22.6243C29.4156 22.2073 29.7704 21.6214 29.9 20.9692L32.1667 9.08333H8.08333" stroke="#E03D3B" stroke-width="2" stroke-linecap="round" stroke-linejoin="round"/>
</svg>

<?xml version="1.0" encoding="UTF-8" standalone="no"?>
<svg width="34" xmlns="http://www.w3.org/2000/svg" fill="none" viewBox="0 0 34 34" height="34">
 <path stroke-linejoin="round" stroke="#E03D3B" stroke-width="2" stroke-linecap="round" d="m12.334 31.75c0.782 0 1.416-0.634 1.416-1.417 0-0.782-0.634-1.417-1.416-1.417-0.783 0-1.417 0.635-1.417 1.417 0 0.783 0.634 1.417 1.417 1.417z"/>
 <path stroke-linejoin="round" stroke="#E03D3B" stroke-width="2" stroke-linecap="round" d="m27.917 31.75c0.782 0 1.416-0.634 1.416-1.417 0-0.782-0.634-1.417-1.416-1.417-0.783 0-1.417 0.635-1.417 1.417 0 0.783 0.634 1.417 1.417 1.417z"/>
 <path stroke-linejoin="round" stroke="#E03D3B" stroke-width="2" stroke-linecap="round" d="m1 2h5.6667l3.7963 18.969c0.13 0.652 0.485 1.238 1.003 1.655s1.166 0.639 1.831 0.626h13.77c0.665 0.013 1.313-0.209 1.831-0.626s0.872-1.003 1.002-1.655l2.267-11.886h-24.084"/>
</svg>
